!!!COM: Palestrina, Giovanni Perluigi da
!!!OPR: Missa Viri Galilaei
!!!OMD: Gloria
!!!OTL: Et in Spiritum
**kern	**kern	**kern	**kern	**kern	**kern
*Ibass	*Itenor	*Itenor	*Icalto	*Icalto	*Icant
!Bassus	!Tenor 2	!Tenor 1	!Altus 2	!Altus 1	!Cantus
*clefF4	*clefGv2	*clefGv2	*clefG2	*clefG2	*clefG2
*k[b-]	*k[b-]	*k[b-]	*k[b-]	*k[b-]	*k[b-]
*G:dor	*G:dor	*G:dor	*G:dor	*G:dor	*G:dor
*M4/2	*M4/2	*M4/2	*M4/2	*M4/2	*M4/2
=173	=173	=173	=173	=173	=173
1.B-	0r	0r	1.f	1.b-	1.dd
2F	.	.	2f	2a	2cc
=174	=174	=174	=174	=174	=174
2G	0r	1r	2d	2g	2b-
2G	.	.	2d	2g	2b-
1D	.	[1d	2d	1f	2a
.	.	.	[2a	.	[2ff
=175	=175	=175	=175	=175	=175
0r	0r	2d]	2a]	2d	2ff]
.	.	2c	2a	2e	2ee
.	.	2B-	2d	2f	2dd
.	.	2B-	2d	2g	2dd
=176	=176	=176	=176	=176	=176
2r	2r	2A	2e	1a	0cc
1F	1a	2f	1c	.	.
.	.	2f	.	1r	.
2C	2g	[2e	2c	.	.
=177	=177	=177	=177	=177	=177
2D	2f	2e]	2A	0r	0r
2D	2f	1d	2a	.	.
1A	1e	.	1a	.	.
.	.	2c#	.	.	.
=178	=178	=178	=178	=178	=178
1D	2d	1d	2.a	2r	1.ff
.	1f	.	.	1a	.
.	.	.	4b-	.	.
1r	.	1r	1cc	.	.
.	2c	.	.	2g	2ee
=179	=179	=179	=179	=179	=179
0r	1d	0r	2r	1f	1dd
.	.	.	1a	.	.
.	2A	.	.	1e	2cc
.	2c	.	2g	.	2cc
=180	=180	=180	=180	=180	=180
0r	2d	0r	1f	2r	2b-
.	2d	.	.	2d	2a
.	2G	.	1e	2d	2b-
.	2A	.	.	2c	[2a
=181	=181	=181	=181	=181	=181
0r	1B-	0r	2r	2d	2a]
.	.	.	2d	2d	2g
.	1A	.	2d	1e	1a
.	.	.	2c	.	.
=182	=182	=182	=182	=182	=182
2r	0r	1r	1d	2.f	2r
1d	.	.	.	.	1ff
.	.	.	.	4g	.
.	.	2r	1A	1a	.
2c	.	[2a	.	.	2ee
=183	=183	=183	=183	=183	=183
1B-	1r	2a]	2f	0r	1dd
.	.	2g	2g	.	.
2A	2r	2f	1a	.	2dd
2A	2a	2e	.	.	2cc
=184	=184	=184	=184	=184	=184
1.B-	2g	2.d	0r	0r	1.dd
.	2f	.	.	.	.
.	.	4e	.	.	.
.	2d	1f	.	.	.
2A	2f	.	.	.	2cc
=185	=185	=185	=185	=185	=185
1G	2f	2g	0r	1r	2b-
.	2e	2g	.	.	4a
.	.	.	.	.	4g
1F	1f	1c	.	2r	1a
.	.	.	.	[2cc	.
=186	=186	=186	=186	=186	=186
1.G	1.d	1r	1.g	2cc]	1.dd
.	.	.	.	4b	.
.	.	.	.	4a	.
.	.	2.G	.	2b	.
2G	2d	.	2g	2b	2dd
.	.	4G	.	.	.
=187	=187	=187	=187	=187	=187
2C	2e-	2G	2g	2cc	2gg
2C	2e-	1G	2cc	2g	2gg
1E-	1e-	.	[1b-	2.g	1gg
.	.	[2B-	.	.	.
.	.	.	.	4a	.
=188	=188	=188	=188	=188	=188
0BB-	0d	4B-]	2b-]	1b-	1ff
.	.	4A	.	.	.
.	.	4B-	2f	.	.
.	.	4c	.	.	.
.	.	2d	2r	2f	1dd
.	.	2B-	[2b-	[2g	.
=189	=189	=189	=189	=189	=189
0r	1d	1r	2b-]	2g]	1.dd
.	.	.	1a	1f#	.
.	2d	2r	.	.	.
.	2d	2d	2a	2f#	2dd
=190	=190	=190	=190	=190	=190
0r	2G	2d	2b-	2g	2dd
.	2G	2B-	2b-	2g	2dd
.	1B-	2d	1b-	2f	1dd
.	.	2d	.	2B-	.
=191	=191	=191	=191	=191	=191
0r	1F	1f	2a	2r	0cc
.	.	.	1a	1f	.
.	2r	1c	.	.	.
.	[2c	.	2g	2e	.
=192	=192	=192	=192	=192	=192
1F	2c]	2r	1a	1f	2r
.	2c	1f	.	.	1cc
1C	2.c	.	1g	1g	.
.	.	2e	.	.	2cc
.	4B-	.	.	.	.
=193	=193	=193	=193	=193	=193
2F	2A	2f	1f	1a	2cc
2F	2A	2f	.	.	2cc
[1BB-	1B-	2.d	1r	2.f	2dd
.	.	.	.	.	[2ff
.	.	4c	.	4e	.
=194	=194	=194	=194	=194	=194
1BB-]	2r	0B-	1f	4d	4ff]
.	.	.	.	4c	4ee
.	2.f	.	.	2B-	4dd
.	.	.	.	.	4cc
[1BB-	.	.	1d	2.f	4dd
.	4e	.	.	.	4cc
.	4d	.	.	.	4b-
.	4c	.	.	4e	4a
=195	=195	=195	=195	=195	=195
2BB-]	2d	2.f	2B-	4f	2b-
.	.	.	.	4g	.
2F	2c	.	2c	2a	2a
.	.	4e	.	.	.
[1G	2.B-	4d	2r	4b-	4g
.	.	4c	.	4cc	4a
.	.	2d	2G	[2b-	4b-
.	4A	.	.	.	4cc
=196	=196	=196	=196	=196	=196
1G]	4G	1B-	1g	4b-]	0dd
.	4A	.	.	4a	.
.	4B-	.	.	1g	.
.	4G	.	.	.	.
1D	1d	1A	1a	.	.
.	.	.	.	2f#	.
=197	=197	=197	=197	=197	=197
2r	1d	2G	2b	2g	0dd
2G	.	2d	2b	2g	.
2G	1r	2d	2b	2g	.
2G	.	2d	2b	2g	.
=198	=198	=198	=198	=198	=198
1C	0r	1e-	1cc	1g	0r
2G	.	2d	2cc	1g	.
2G	.	2d	2b-	.	.
=199	=199	=199	=199	=199	=199
2.c	0r	2.e-	4a	2r	0r
.	.	.	4g	.	.
.	.	.	1g	2g	.
4B-	.	4d	.	.	.
2A	.	2c	.	[1cc	.
2A	.	2c	2f#	.	.
=200	=200	=200	=200	=200	=200
[0G	1r	1d	0g	2cc]	2r
.	.	.	.	2b-	2dd
.	2r	1r	.	2.b-	2dd
.	2d	.	.	.	2dd
.	.	.	.	4a	.
=201	=201	=201	=201	=201	=201
0G]	2d	2r	2r	4b-	2g
.	.	.	.	4a	.
.	2d	2d	2b-	4g	2g
.	.	.	.	4f	.
.	2G	2d	2b-	1g	1dd
.	2G	2d	2b-	.	.
=202	=202	=202	=202	=202	=202
0r	1g	2G	2.b-	1r	2dd
.	.	2G	.	.	2.gg
.	.	.	4b-	.	.
.	1r	2d	1a	2r	.
.	.	.	.	.	4ff
.	.	2d	.	2a	2ff
=203	=203	=203	=203	=203	=203
0r	0r	2.g	2g	2.b-	4ee-
.	.	.	.	.	4dd
.	.	.	2.b-	.	1dd
.	.	4f	.	4a	.
.	.	2e-	.	2g	.
.	.	.	4a	.	.
.	.	2e-	[2g	2g	2cc
=204	=204	=204	=204	=204	=204
1r	2r	1d	2g]	1a	1dd
.	1d	.	2f#	.	.
1G	.	1r	2g	1b-	1dd
.	[2B-	.	2g	.	.
=205	=205	=205	=205	=205	=205
1.E-	2B-]	1G	1.b-	1.g	1.ee-
.	2G	.	.	.	.
.	4G	[1B-	.	.	.
.	4A	.	.	.	.
2BB-	4B-	.	2b-	2f	2dd
.	4c	.	.	.	.
=206	=206	=206	=206	=206	=206
[0BB-	1d	2B-]	[0b-	2f	2dd
.	.	2B-	.	2d	2ff
.	2f	2B-	.	2.B-	2dd
.	2d	2f	.	.	2b-
.	.	.	.	4c	.
=207	=207	=207	=207	=207	=207
1BB-]	2B-	2d	1b-]	1.d	4ff
.	.	.	.	.	4ee-
.	2f	2B-	.	.	4dd
.	.	.	.	.	4cc
2r	2B-	1f	2r	.	2b-
2F	2F	.	2a	2A	[2cc
=208	=208	=208	=208	=208	=208
2D	2A	0F	2f	1d	2cc]
2BB-	2B-	.	2f	.	1b-
1F	1c	.	1f	1c	.
.	.	.	.	.	2a
=209	=209	=209	=209	=209	=209
0BB-	1B-	2r	2f	2.d	2b-
.	.	1B-	1b-	.	1dd
.	.	.	.	4e	.
.	1r	.	.	1f	.
.	.	2B-	2b-	.	2dd
=210	=210	=210	=210	=210	=210
0r	0r	2.f	2.a	0r	2.cc
.	.	4g	4g	.	4b-
.	.	2f	2a	.	2cc
.	.	2d	2f	.	2dd
=211	=211	=211	=211	=211	=211
0r	0r	2c	2g	0r	2ee-
.	.	2c	1cc	.	2ee-
.	.	1g	.	.	2dd
.	.	.	[2b-	.	4cc
.	.	.	.	.	4b-
=212	=212	=212	=212	=212	=212
1r	2r	0f	2b-]	1r	1cc
.	1F	.	4a	.	.
.	.	.	4g	.	.
2r	.	.	2a	2r	1cc
[2F	2F	.	2a	[2cc	.
=213	=213	=213	=213	=213	=213
2F]	1.f	0r	2a	2cc]	0r
2F	.	.	2cc	2a	.
2.c	.	.	2.cc	2.g	.
.	4e	.	.	.	.
4d	4d	.	4b-	4f	.
=214	=214	=214	=214	=214	=214
2c	2e	0r	2cc	2g	0r
2A	2f	.	2c	2a	.
2G	2g	.	2d	2b-	.
2G	2d	.	[2g	2b-	.
=215	=215	=215	=215	=215	=215
1d	2f	0r	2g]	2.a	0r
.	2f	.	2.f	.	.
.	.	.	.	4b-	.
1c	1g	.	.	1cc	.
.	.	.	8e	.	.
.	.	.	8d	.	.
.	.	.	2e	.	.
=216	=216	=216	=216	=216	=216
1F	1a	2r	1f	2cc	2r
.	.	1f	.	1a	1cc
1r	1r	.	1c	.	.
.	.	2e	.	2g	2cc
=217	=217	=217	=217	=217	=217
1r	2r	1f	1r	1f	1b-
.	1f	.	.	.	.
2r	.	1c	2r	1g	1cc
[2c	2e	.	[2g	.	.
=218	=218	=218	=218	=218	=218
2c]	1d	0r	2g]	1r	0r
2B-	.	.	2g	.	.
1A	1c	.	1f	2r	.
.	.	.	.	[2cc	.
=219	=219	=219	=219	=219	=219
1G	1d	2r	1g	2cc]	1.dd
.	.	1G	.	4b-	.
.	.	.	.	4a	.
1r	1r	.	[1g	2b-	.
.	.	2G	.	2b-	2dd
=220	=220	=220	=220	=220	=220
0r	0r	2.d	2g]	2a	2dd
.	.	.	2f	2a	2dd
.	.	4d	.	.	.
.	.	2d	2a	1f	2.ff
.	.	2d	2b-	.	.
.	.	.	.	.	4ff
=221	=221	=221	=221	=221	=221
0r	0r	2c	2cc	2g	2ee-
.	.	2B-	2f	2.b-	1dd
.	.	1e-	2.g	.	.
.	.	.	.	4a	.
.	.	.	.	[2g	2cc
.	.	.	4a	.	.
=222	=222	=222	=222	=222	=222
2r	1r	0d	2b-	2g]	0dd
2D	.	.	4a	4f	.
.	.	.	4g	4e	.
4D	2r	.	2a	2f	.
4E	.	.	.	.	.
4F	2A	.	2a	2f	.
4G	.	.	.	.	.
=223	=223	=223	=223	=223	=223
4A	4A	0r	1a	1.e	1r
4G	4B-	.	.	.	.
4A	4c	.	.	.	.
4B-	4d	.	.	.	.
1c	4e	.	1g	.	2r
.	4d	.	.	.	.
.	4e	.	.	2c	2g
.	4f	.	.	.	.
=224	=224	=224	=224	=224	=224
2G	1g	0r	0r	2r	4g
.	.	.	.	.	4a
2G	.	.	.	2d	4b-
.	.	.	.	.	4cc
1B-	2f	.	.	4d	4dd
.	.	.	.	4e	4cc
.	[2f	.	.	4f	4dd
.	.	.	.	4g	4ee
=225	=225	=225	=225	=225	=225
1F	4f]	0r	0r	4a	1ff
.	4e	.	.	4g	.
.	2d	.	.	4a	.
.	.	.	.	4b-	.
2.A	2c	.	.	1cc	2ee
.	2f	.	.	.	2cc
4B-	.	.	.	.	.
=226	=226	=226	=226	=226	=226
2c	2e	0r	0r	2cc	2ee
2d	2a	.	.	2a	2ff
1G	2.g	.	.	2b-	4gg
.	.	.	.	.	4ff
.	.	.	.	2b-	4ee
.	4f	.	.	.	4dd
=227	=227	=227	=227	=227	=227
0A	2e	0r	0r	1.a	2cc
.	2d	.	.	.	1dd
.	1e	.	.	.	.
.	.	.	.	2a	2cc#
=228	=228	=228	=228	=228	=228
2.B-	1d	2r	1r	2f	[0dd
.	.	2G	.	4g	.
4A	.	.	.	4a	.
4G	1g	4G	2r	1b-	.
4F	.	4A	.	.	.
2G	.	4B-	2d	.	.
.	.	4c	.	.	.
=229	=229	=229	=229	=229	=229
0D	2.f	4d	4d	2a	1dd]
.	.	4c	4e	.	.
.	.	4d	4f	2d	.
.	4e	4e	4g	.	.
.	1d	1f	4a	4d	2r
.	.	.	4g	4e	.
.	.	.	4a	4f	2a
.	.	.	4b-	4g	.
=230	=230	=230	=230	=230	=230
0r	0r	1f	2cc	4a	4a
.	.	.	.	4g	4b-
.	.	.	2f	4a	4cc
.	.	.	.	4b-	4dd
.	.	1c	2g	1cc	4ee
.	.	.	.	.	4dd
.	.	.	2g	.	4ee
.	.	.	.	.	4ff
=231	=231	=231	=231	=231	=231
0r	0r	2c	2e	2cc	2gg
.	.	2d	4f	1a	1ff
.	.	.	4g	.	.
.	.	2f	4a	.	.
.	.	.	4b-	.	.
.	.	2c	4cc	2g	2ee
.	.	.	4b-	.	.
=232	=232	=232	=232	=232	=232
1r	0r	2d	2a	2f	2dd
.	.	2e-	2g	1g	2cc
2r	.	[1d	[1a	.	[1dd
2D	.	.	.	4f	.
.	.	.	.	4e	.
=233	=233	=233	=233	=233	=233
4D	2r	1d]	0a]	2f	2dd]
4E	.	.	.	.	.
4F	2A	.	.	2f	2dd
4G	.	.	.	.	.
4A	4A	2r	.	1e	[1cc
4G	4B-	.	.	.	.
4A	4c	2A	.	.	.
4B-	4d	.	.	.	.
=234	=234	=234	=234	=234	=234
1c	4e	4A	2r	2r	1cc]
.	4d	4B-	.	.	.
.	4e	4c	2.g	2c	.
.	4f	4d	.	.	.
2C	2g	4e	.	1cc	2r
.	.	4d	4f	.	.
2C	2c	4e	2e	.	2g
.	.	4f	.	.	.
=235	=235	=235	=235	=235	=235
1G	2d	2g	2d	1b-	4g
.	.	.	.	.	4a
.	1B-	2G	2d	.	4b-
.	.	.	.	.	4cc
1G	.	2.B-	4d	1b-	2dd
.	.	.	4c	.	.
.	2G	.	4d	.	2dd
.	.	4c	4e	.	.
=236	=236	=236	=236	=236	=236
1D	2A	2d	2f#	2a	1.dd
.	2d	2B-	1g	2g	.
1D	1d	2A	.	2a	.
.	.	2A	2f#	2d	2dd
=237	=237	=237	=237	=237	=237
0G	2.B	1G	0g	2d	2.dd
.	.	.	.	2.g	.
.	4c	.	.	.	4cc
.	1d	2r	.	.	4b
.	.	.	.	4f	4a
.	.	[2g	.	2d	2b
=238	=238	=238	=238	=238	=238
0C	2.c	4g]	0g	2e-	0cc
.	.	4f	.	.	.
.	.	4e-	.	2c	.
.	8B-	4d	.	.	.
.	8A	.	.	.	.
.	1G	1c	.	1e-	.
=239	=239	=239	=239	=239	=239
0G	0G	0B	0g	0d	0dd
==	==	==	==	==	==
*-	*-	*-	*-	*-	*-
!!!CDT: 1525/^1526/-1594/2/2
!!!OCY: Italia
!!!AGN: Mass (Parody)
!!!AST: renaissance, vocal
!!!ASW: Motet 1569 (Palestrina)
!!!PWK: Masses, Book 12
!!!RNB: Cadence finals: D
!!!YOR: Le Opere Complete, v. 29, p. 159
!!!YOO: Rome, Italy: Fratelli Scalera
!!!END: 1992//
!!!EED: John Miller
!!!YEC: Copyright 2000, John Miller
!!!YEN: United States of America
!!!YEM: Rights to all derivative electronic formats reserved.
!!!YEM: Refer to licensing agreement for further details.
!!!YEM: This file must be accompanied by the licensing agreement.
!!!YEM: A copy of the licensing agreement may be found at http://www.music-cog.ohio-state.edu/HumdrumDatabases/Palestrina/license.txt
!!!EMD: converted to Humdrum by Bret Aarden
